assets/images/status-up.svg

<svg width="24" height="24" viewBox="0 0 24 24" fill="none" xmlns="http://www.w3.org/2000/svg">
<path d="M6.87988 18.1501V16.0801" stroke="#1BB1B7" stroke-width="1.5" stroke-linecap="round"/>
<path d="M12 18.15V14.01" stroke="#1BB1B7" stroke-width="1.5" stroke-linecap="round"/>
<path d="M17.1201 18.1499V11.9299" stroke="#1BB1B7" stroke-width="1.5" stroke-linecap="round"/>
<path d="M17.1199 5.8501L16.6599 6.3901C14.1099 9.3701 10.6899 11.4801 6.87988 12.4301" stroke="#1BB1B7" stroke-width="1.5" stroke-linecap="round"/>
<path d="M14.1899 5.8501H17.1199V8.7701" stroke="#1BB1B7" stroke-width="1.5" stroke-linecap="round" stroke-linejoin="round"/>
<path d="M9 22H15C20 22 22 20 22 15V9C22 4 20 2 15 2H9C4 2 2 4 2 9V15C2 20 4 22 9 22Z" stroke="#1BB1B7" stroke-width="1.5" stroke-linecap="round" stroke-linejoin="round"/>
</svg>

<svg xmlns="http://www.w3.org/2000/svg" width="24" height="24" fill="none" viewBox="0 0 24 24"><path stroke="#1bb1b7" stroke-linecap="round" stroke-width="1.5" d="M6.88 18.15v-2.07M12 18.15v-4.14m5.12 4.14v-6.22m0-6.08-.46.54a18.9 18.9 0 0 1-9.78 6.04"/><path stroke="#1bb1b7" stroke-linecap="round" stroke-linejoin="round" stroke-width="1.5" d="M14.19 5.85h2.93v2.92"/><path stroke="#1bb1b7" stroke-linecap="round" stroke-linejoin="round" stroke-width="1.5" d="M9 22h6c5 0 7-2 7-7V9c0-5-2-7-7-7H9C4 2 2 4 2 9v6c0 5 2 7 7 7"/></svg>
